-----BEGIN PGP PUBLIC KEY BLOCK-----

mQGNBGrCELEBDADNqapqIQ4FJCYllPpbw4czbeuGNlIvODCoTOCfbapV1Y5onMfb
xz5SsRLeBnOVqJ05MiVIPS0qHz9HDZY1+zmhtjBtkhS7d4WELRJ912xXM1ngTTqY
7O+iNE7nUuBLU6WF270pCjPumPwZC8EK0dYd3gv5ac1Hb0oyOLdShtvdQB8oX3rQ
hserKc6Ps+F79SWULGQTfupx7F2PzFMtULARyrbAaqCnUQfKfyLRYGKj70+IL8nK
QT0AjfrzXEdK1MAYgdOU1gAAXCvu8ID4V+nCJxFbTr5NeYOWWGQHrU1cfiNwdkFO
PT7eGKZ9vd9TUB4cQLcAdlRmUdyJlEA6wlNks4wARphnJW9+rKDzZnLNYFkjuTiR
nHwt/6cPixBxJHrojjAq6J32GFouQWqP0LWxlLFXVY5W9TyZobtJYCNZyVyzH+4+
6wLy+0D8HXjrjeGvz+VYYHn0608ca9HBKn/oYZvd/lDzDlwpmLsCiHTCsMVcctFo
fcmLgiFTYk9KomsAEQEAAbQmQWN0dXJlIEFQVCBhcmNoaXZlIDxhY3R1cmVhQGdt
YWlsLmNvbT6JAfMEEwEIAF0WIQTZUBajONhKXEi0hAXe5jKReYdTQAUCasIQsRsU
gAAAAAAEAA5tYW51MiwyLjUrMS4xMiwwLDMCGwMFCQPCZwAFCwkIBwICIgIGFQoJ
CAsCBBYCAwECHgcCF4AACgkQ3uYykXmHU0DhSQwAxleDlVJkWmYPyenyazu/9o+n
NkGGzgGnEwFW+QKn2wb/xrOkk2dG7pzBbEHTTxLcEtUCtSsv3DgvXY8EA24D8Tsr
S8D0FizHk/6eQy16Utp5Y6L3GYdapmVDX5yX284hO+PjUv26jU7AA4NSBUTYtzse
ohN42R/5tzdlC3JrKpZHoebqNQkfqiglRDFbsPZhbXpMB7gLrXttehaRROVWF3w3
fH+EI6a4alnVEMrj9+ub3CDLk8jE19TQ/eUWJ1yV23orNATUqAdch1jxvk+gTbO3
1GvmSNryHSMZ95MFB3pTbz3JT0LVo4C180r4myrycTmiCCMsZbshmmGTyTAxgX9N
XfLG6ChuFx+9pZG50+2z9doclnS3zV8vILRxCQDEiPNYfdYl1K5+UUaVAA6Y02BC
WYSGEpZr30aoEhADlnVPjFconZX+dLzMQ52x95MmEO+uizHfuZb3gPCPoKPWA80f
ZE4UR6OtAP5ljBfO19L3fZKwGZpwT2rjcRheORut
=mhN3
-----END PGP PUBLIC KEY BLOCK-----
